16x16/emblems/emblem-question.svg

<?xml version="1.0" encoding="UTF-8" standalone="no"?>
<!-- Created with Inkscape (http://www.inkscape.org/) -->

<svg
   xmlns:dc="http://purl.org/dc/elements/1.1/"
   xmlns:cc="http://creativecommons.org/ns#"
   xmlns:rdf="http://www.w3.org/1999/02/22-rdf-syntax-ns#"
   xmlns:svg="http://www.w3.org/2000/svg"
   xmlns="http://www.w3.org/2000/svg"
   xmlns:sodipodi="http://sodipodi.sourceforge.net/DTD/sodipodi-0.dtd"
   xmlns:inkscape="http://www.inkscape.org/namespaces/inkscape"
   width="16"
   height="16"
   id="svg4375"
   version="1.1"
   inkscape:version="0.91 r13725"
   viewBox="0 0 16 16"
   sodipodi:docname="emblem-question.svg">
  <defs
     id="defs4377">
    <linearGradient
       id="linearGradient4237">
      <stop
         id="stop4239"
         style="stop-color:#ff594d;stop-opacity:1"
         offset="0" />
      <stop
         id="stop4241"
         style="stop-color:#ff7f76;stop-opacity:1"
         offset="1" />
    </linearGradient>
  </defs>
  <sodipodi:namedview
     id="base"
     pagecolor="#ffffff"
     bordercolor="#666666"
     borderopacity="1.0"
     inkscape:pageopacity="0.0"
     inkscape:pageshadow="2"
     inkscape:zoom="19.79899"
     inkscape:cx="-5.4680759"
     inkscape:cy="4.4219699"
     inkscape:current-layer="layer1"
     showgrid="true"
     inkscape:grid-bbox="true"
     inkscape:document-units="px"
     inkscape:window-width="1366"
     inkscape:window-height="712"
     inkscape:window-x="0"
     inkscape:window-y="28"
     inkscape:window-maximized="1" />
  <metadata
     id="metadata4380">
    <rdf:RDF>
      <cc:Work
         rdf:about="">
        <dc:format>image/svg+xml</dc:format>
        <dc:type
           rdf:resource="http://purl.org/dc/dcmitype/StillImage" />
        <dc:title></dc:title>
      </cc:Work>
    </rdf:RDF>
  </metadata>
  <g
     id="layer1"
     inkscape:label="Layer 1"
     inkscape:groupmode="layer"
     transform="translate(0,-32)">
    <path
       style="display:inline;opacity:1;fill:#9b59b6;fill-opacity:1;fill-rule:evenodd;stroke:none;stroke-width:1.50122643;stroke-linecap:round;stroke-linejoin:round;stroke-miterlimit:4;stroke-dasharray:none;stroke-dashoffset:0;stroke-opacity:1;enable-background:new"
       d="m 7.999999,32.250001 c -4.280206,1e-6 -7.749999,3.469794 -7.749999,7.75 10e-7,4.280206 3.469793,7.749999 7.749999,7.749999 4.280207,0 7.75,-3.469793 7.75,-7.749999 0,-4.280207 -3.469793,-7.75 -7.75,-7.75 z"
       id="path4803"
       inkscape:connector-curvature="0"
       sodipodi:nodetypes="sssss" />
    <path
       inkscape:connector-curvature="0"
       style="fill:#ffffff;fill-opacity:1;stroke:none"
       d="M 8.1333333,36 C 7.4851867,36 6.8799985,36.227379 6.4536459,36.653645 6.0272925,37.080045 5.8,37.6852 5.8,38.333333 l 1.3333333,0 c 0,-0.351866 0.1060387,-0.580045 0.2630208,-0.736978 0.15698,-0.156934 0.3851286,-0.263022 0.7369792,-0.263022 0.3518534,0 0.5799974,0.106627 0.7369794,0.263022 0.15698,0.156933 0.263021,0.385112 0.263021,0.736978 0,0.3056 -0.06023,0.436884 -0.140625,0.552083 -0.08039,0.114667 -0.212741,0.222043 -0.4088546,0.359376 -0.196116,0.1372 -0.4546725,0.294853 -0.6953125,0.57552 C 7.6479016,40.101112 7.4666667,40.527867 7.4666667,41 l 0,0.333333 1.333333,0 0,-0.333333 c 0,-0.1944 0.02708,-0.228633 0.09896,-0.3125 0.07185,-0.084 0.229966,-0.194559 0.450521,-0.348959 0.220549,-0.1544 0.5048723,-0.359908 0.7369793,-0.692708 0.232106,-0.332666 0.380208,-0.784766 0.380208,-1.3125 0,-0.648133 -0.22729,-1.253288 -0.653646,-1.679688 C 9.3866687,36.227379 8.7814837,36 8.1333343,36 Z m -0.6666666,6.666667 0,1.333333 1.333333,0 0,-1.333333 -1.333333,0 z"
       id="path4142" />
  </g>
</svg>

<svg xmlns="http://www.w3.org/2000/svg" width="16" height="16">
    <path style="display:inline;opacity:1;fill:#9b59b6;fill-opacity:1;fill-rule:evenodd;stroke:none;stroke-width:1.50122643;stroke-linecap:round;stroke-linejoin:round;stroke-miterlimit:4;stroke-dasharray:none;stroke-dashoffset:0;stroke-opacity:1;enable-background:new" d="M8 32.25a7.75 7.75 0 1 0 0 15.5 7.75 7.75 0 0 0 0-15.5z" transform="translate(0 -32)"/>
    <path style="fill:#fff;fill-opacity:1;stroke:none" d="M8.133 36c-.648 0-1.253.227-1.68.654-.426.426-.653 1.031-.653 1.68h1.333c0-.353.106-.58.263-.738.157-.157.385-.263.737-.263s.58.107.737.263c.157.157.263.385.263.737 0 .306-.06.437-.14.552-.08.115-.213.222-.41.36-.195.137-.454.295-.694.575A1.846 1.846 0 0 0 7.467 41v.333H8.8V41c0-.194.027-.229.099-.313.072-.083.23-.194.45-.348.221-.155.505-.36.737-.693.233-.333.38-.785.38-1.313 0-.648-.227-1.253-.653-1.68-.426-.426-1.032-.653-1.68-.653Zm-.666 6.667V44H8.8v-1.333H7.467z" transform="translate(0 -32)"/>
</svg>
